X: 233
T: Madame Corde's frolic
%R: jig
Z: 2014 John Chambers <jc:trillian.mit.edu>
B: Preston "Twenty four Country Dances for the Year 1794" p.97 #1
F: http://www.vwml.org/browse/browse-collections-dance-tune-books/browse-prestons1794# 2014-8-10
M: 6/8
L: 1/8
K: Bb
|:\
BFB TB3 | cFc Tc3 | d2B e2c | fdB AGF |\
BFB TB3 | cFc Tc3 | dfe dcB | F2A B3 :|
|:\
b3 f3 | d3 B3 | c2e d2B | AcB AGF |\
b3 f3 | d3 B3 | c2e d2B | F2A B3 :|
% - - - - - - - - - - - - - - - - - - - - - - - - -
%%begintext align
%% The 1st Lady set to the 2d Gent.n & turn her
%% own Part.r .| The 1st Gent.n set to the 2d Lady
%% & turn his Part.r :| Cross over 1 Cu: and
%% turn :|. Right & Left :|:
%%endtext
% - - - - - - - - - - - - - - - - - - - - - - - - -

%%sep 1 1 500
%%sep 1 1 500
